packages/icons/raw/imported/TextUnderline.svg

<svg width="32" height="32" viewBox="0 0 32 32" fill="none" xmlns="http://www.w3.org/2000/svg">
<path d="M23.5 6.5C23.5 6.22386 23.2761 6 23 6C22.7239 6 22.5 6.22386 22.5 6.5L23.5 6.5ZM23 15.5769H23.5H23ZM9.5 6.5C9.5 6.22386 9.27614 6 9 6C8.72386 6 8.5 6.22386 8.5 6.5L9.5 6.5ZM9.00001 15.5769L8.50001 15.5769L9.00001 15.5769ZM16 22.5769V23.0769H16L16 22.5769ZM9.73684 25C9.4607 25 9.23684 25.2239 9.23684 25.5C9.23684 25.7761 9.4607 26 9.73684 26V25ZM22.2632 26C22.5393 26 22.7632 25.7761 22.7632 25.5C22.7632 25.2239 22.5393 25 22.2632 25V26ZM22.5 6.5L22.5 15.5769H23.5L23.5 6.5L22.5 6.5ZM8.5 6.5L8.50001 15.5769L9.50001 15.5769L9.5 6.5L8.5 6.5ZM16 22.0769C12.4102 22.0769 9.50001 19.1668 9.50001 15.5769L8.50001 15.5769C8.50002 19.7191 11.8579 23.0769 16 23.0769V22.0769ZM22.5 15.5769C22.5 19.1668 19.5899 22.0769 16 22.0769L16 23.0769C20.1421 23.0769 23.5 19.7191 23.5 15.5769H22.5ZM9.73684 26H22.2632V25H9.73684V26Z" fill="black"/>
</svg>

<svg width="32" height="32" fill="none" xmlns="http://www.w3.org/2000/svg"><path d="M23.5 6.5a.5.5 0 0 0-1 0h1Zm-.5 9.077h.5-.5ZM9.5 6.5a.5.5 0 0 0-1 0h1ZM9 15.577h-.5.5Zm7 7v.5-.5ZM9.737 25a.5.5 0 0 0 0 1v-1Zm12.526 1a.5.5 0 0 0 0-1v1ZM22.5 6.5v9.077h1V6.5h-1Zm-14 0v9.077h1V6.5h-1ZM16 22.077a6.5 6.5 0 0 1-6.5-6.5h-1a7.5 7.5 0 0 0 7.5 7.5v-1Zm6.5-6.5a6.5 6.5 0 0 1-6.5 6.5v1a7.5 7.5 0 0 0 7.5-7.5h-1ZM9.737 26h12.526v-1H9.737v1Z" fill="#000"/></svg>
